Simply black circles/scalable/actions/package-supported.svg

<svg xmlns="http://www.w3.org/2000/svg" width="24" height="24">
  <path fill="#c83737" d="M11.978516 3.9921875A7.9777765 7.962976 0 0 0 4 11.955078a7.9777765 7.962976 0 0 0 7.978516 7.962891 7.9777765 7.962976 0 0 0 7.976562-7.962891 7.9777765 7.962976 0 0 0-7.976562-7.9628905zm0 1.9960937a5.9777765 5.9666867 0 0 1 5.976562 5.9667968 5.9777765 5.9666867 0 0 1-5.976562 5.966797A5.9777765 5.9666867 0 0 1 6 11.955078a5.9777765 5.9666867 0 0 1 5.978516-5.9667968zm0 1.9960938A3.9777765 3.9703972 0 0 0 8 11.955078a3.9777765 3.9703972 0 0 0 3.978516 3.970703 3.9777765 3.9703972 0 0 0 3.976562-3.970703 3.9777765 3.9703972 0 0 0-3.976562-3.970703z"/>
</svg>

<?xml version="1.0" encoding="UTF-8" standalone="no"?>
<svg
   xmlns:dc="http://purl.org/dc/elements/1.1/"
   xmlns:cc="http://creativecommons.org/ns#"
   xmlns:rdf="http://www.w3.org/1999/02/22-rdf-syntax-ns#"
   xmlns:svg="http://www.w3.org/2000/svg"
   xmlns="http://www.w3.org/2000/svg"
   xmlns:sodipodi="http://sodipodi.sourceforge.net/DTD/sodipodi-0.dtd"
   xmlns:inkscape="http://www.inkscape.org/namespaces/inkscape"
   viewBox="0 0 24 24"
   version="1.1"
   id="svg4"
   sodipodi:docname="package-supported.svg"
   inkscape:version="0.92.3 (2405546, 2018-03-11)"
   width="24"
   height="24"
   style="fill:#000000">
  <metadata
     id="metadata10">
    <rdf:RDF>
      <cc:Work
         rdf:about="">
        <dc:format>image/svg+xml</dc:format>
        <dc:type
           rdf:resource="http://purl.org/dc/dcmitype/StillImage" />
        <dc:title></dc:title>
      </cc:Work>
    </rdf:RDF>
  </metadata>
  <defs
     id="defs8" />
  <sodipodi:namedview
     pagecolor="#ffffff"
     bordercolor="#666666"
     borderopacity="1"
     objecttolerance="10"
     gridtolerance="10"
     guidetolerance="10"
     inkscape:pageopacity="0"
     inkscape:pageshadow="2"
     inkscape:window-width="1366"
     inkscape:window-height="717"
     id="namedview6"
     showgrid="false"
     inkscape:zoom="22.5"
     inkscape:cx="3.0444448"
     inkscape:cy="12"
     inkscape:window-x="0"
     inkscape:window-y="25"
     inkscape:window-maximized="1"
     inkscape:current-layer="svg4"
     showguides="true"
     inkscape:guide-bbox="true"
     inkscape:snap-smooth-nodes="true" />
  <path
     style="opacity:1;fill:#c83737;fill-opacity:1;stroke:#1a1a1a;stroke-width:0;stroke-miterlimit:4;stroke-dasharray:none;stroke-opacity:0.99237001"
     d="M 11.978516 3.9921875 A 7.9777765 7.962976 0 0 0 4 11.955078 A 7.9777765 7.962976 0 0 0 11.978516 19.917969 A 7.9777765 7.962976 0 0 0 19.955078 11.955078 A 7.9777765 7.962976 0 0 0 11.978516 3.9921875 z M 11.978516 5.9882812 A 5.9777765 5.9666867 0 0 1 17.955078 11.955078 A 5.9777765 5.9666867 0 0 1 11.978516 17.921875 A 5.9777765 5.9666867 0 0 1 6 11.955078 A 5.9777765 5.9666867 0 0 1 11.978516 5.9882812 z M 11.978516 7.984375 A 3.9777765 3.9703972 0 0 0 8 11.955078 A 3.9777765 3.9703972 0 0 0 11.978516 15.925781 A 3.9777765 3.9703972 0 0 0 15.955078 11.955078 A 3.9777765 3.9703972 0 0 0 11.978516 7.984375 z "
     id="path834" />
</svg>
